X:1
T:Title
%%score { 1 | 2 }
L:1/8
M:4/4
K:Eb
V:1 treble nm="Grand Piano"
V:2 bass 
V:1
 z4 z2[Q:1/4=92] E2 | G2 G2 F2 E2 | G2 [GB]4 [GB]2 | c2 c2 A2 c2 |[M:3/4] [GB]6 |[M:1/4] [AB]2 | %6
[M:4/4] [Be]2 [Ge]2 [GB]2 G2 | e2 c2 [EGB]2 [CFA]2 | [B,EG]2 [EB]2 [DF]2 [DF]2 |[M:3/4] E6 |] %10
V:2
 z4 z2 [E,G,]2 | [E,B,E]2 [B,E]2 [A,B,D]2 [G,B,]2 | [E,B,E]2 [E,E]4 [E,E]2 | %3
 [A,EA]2 [A,EA]2 [A,CE]2 [A,EA]2 |[M:3/4][K:bass] [E,E]6 |[M:1/4] [F,D]2 | %6
[M:4/4] [G,E]2 [E,B,]2 [E,E]2 [E,B,E]2 | [G,B,E]2 [A,CE]2 E,2 A,,2 | %8
 B,,2 [B,,G,]2 [B,,A,]2 [B,,A,]2 |[M:3/4] [E,G,]6 |] %10

